resources/haticons/SVG/emoji_transportation.svg

<!-- Generated by IcoMoon.io -->
<svg version="1.1" xmlns="http://www.w3.org/2000/svg" width="24" height="24" viewBox="0 0 24 24">
<title>emoji_transportation</title>
<path d="M5.016 18.984h1.969v2.016h-1.969v-2.016zM5.016 15h1.969v2.016h-1.969v-2.016zM9.984 5.016h2.016v1.969h-2.016v-1.969zM5.016 11.016h1.969v1.969h-1.969v-1.969zM14.016 9v-5.016h-6v5.016h-5.016v12h-0.984v-12.984h4.969v-5.016h8.016v6h-0.984zM20.016 17.016q0.422 0 0.703-0.305t0.281-0.727-0.281-0.703-0.703-0.281-0.727 0.281-0.305 0.703 0.305 0.727 0.727 0.305zM12 17.016q0.422 0 0.703-0.305t0.281-0.727-0.281-0.703-0.703-0.281-0.703 0.281-0.281 0.703 0.281 0.727 0.703 0.305zM12.422 11.016l-1.031 3h9.234l-1.031-3h-7.172zM20.578 10.641l1.406 4.125v5.531q0 0.281-0.211 0.492t-0.492 0.211h-0.609q-0.281 0-0.469-0.234t-0.188-0.516v-1.266h-8.016v1.266q0 0.281-0.211 0.516t-0.492 0.234h-0.609q-0.656 0-0.656-0.703l-0.047-5.531 1.453-4.125q0.234-0.656 0.984-0.656h7.172q0.75 0 0.984 0.656z"></path>
</svg>

<svg xmlns="http://www.w3.org/2000/svg" width="24" height="24"><path d="M5.016 18.984h1.969V21H5.016v-2.016zm0-3.984h1.969v2.016H5.016V15zm4.968-9.984H12v1.969H9.984V5.016zm-4.968 6h1.969v1.969H5.016v-1.969zm9-2.016V3.984h-6V9H3v12h-.984V8.016h4.969V3h8.016v6h-.984zm6 8.016q.422 0 .703-.305t.281-.727-.281-.703-.703-.281-.727.281-.305.703.305.727.727.305zm-8.016 0q.422 0 .703-.305t.281-.727-.281-.703T12 15t-.703.281-.281.703.281.727.703.305zm.422-6l-1.031 3h9.234l-1.031-3h-7.172zm8.156-.375l1.406 4.125v5.531q0 .281-.211.492t-.492.211h-.609q-.281 0-.469-.234t-.188-.516v-1.266h-8.016v1.266q0 .281-.211.516t-.492.234h-.609q-.656 0-.656-.703l-.047-5.531 1.453-4.125q.234-.656.984-.656h7.172q.75 0 .984.656z"/></svg>
